packages/core/src/svgs/tokens/branded/NAKA.svg

<svg width="24" height="24" viewBox="0 0 24 24" fill="none" xmlns="http://www.w3.org/2000/svg">
<mask id="mask0_364_11734" style="mask-type:luminance" maskUnits="userSpaceOnUse" x="2" y="2" width="20" height="20">
<path d="M22 2H2V22H22V2Z" fill="white"/>
</mask>
<g mask="url(#mask0_364_11734)">
<path d="M2 2H22V22H2V2Z" fill="#C10606"/>
<path d="M15.6854 12.6502C15.4354 13.793 14.3533 13.6073 14.3533 13.6073C13.1818 13.4644 13.289 12.0002 13.289 12.0002H15.6818V12.6502H15.6854ZM10.1354 13.6073C10.1354 13.6073 9.03544 13.8572 8.78544 12.7144V12.0002H11.1998C11.1998 12.0002 11.3068 13.4644 10.1354 13.6073ZM8.739 10.0466C8.739 10.0466 8.21044 10.068 8.21044 9.58586V9.05728H6.94615V10.7858H5.39258V12.0002H6.92829V12.5644H5.39258V13.7858L7.11758 13.7752C7.11758 13.7752 7.59972 15.9287 9.87829 15.9287C9.97829 15.9287 11.464 15.9287 12.2462 14.5358C12.8926 15.9287 14.4998 15.9287 14.6068 15.9287C16.889 15.9287 17.3783 13.7858 17.3783 13.7858H19.1426V12.5644H17.5604V12.0002H19.1426V10.7858H17.5426V9.05728H16.2783V9.58586C16.2783 10.068 15.7498 10.0466 15.7498 10.0466H8.739Z" fill="#7F0404"/>
<path d="M15.3933 12.2143C15.1433 13.3571 14.0612 13.1714 14.0612 13.1714C12.8933 13.0286 13.0719 12.1786 13.0719 11.6428H15.3933V12.2143ZM9.8469 13.1714C9.8469 13.1714 8.7469 13.3571 8.4969 12.2143V11.6428H10.9112C10.9112 11.6428 11.0183 13.025 9.8469 13.1714ZM8.4469 9.61069C8.4469 9.61069 7.9219 9.63213 7.9219 9.15355V8.61784H6.65762V10.35H5.05762V11.6428H6.64333V12.1286H5.07547V13.4286H6.82904C6.82904 13.4286 7.30762 15.5714 9.58976 15.5714C9.58976 15.5714 11.2326 15.7143 11.9541 14.1786C12.6791 15.7143 14.3219 15.5714 14.3219 15.5714C16.6005 15.5714 17.0791 13.4286 17.0791 13.4286H18.8326V12.1286H17.3576V11.6428H18.8541V10.35H17.2505V8.62141H15.9862V9.15355C15.9862 9.63213 15.4576 9.61069 15.4576 9.61069H8.4469Z" fill="#CCCCCC"/>
<path d="M15.2146 11.9215C14.9646 13.0679 13.9182 12.8822 13.9182 12.8822C12.7467 12.7358 12.8538 11.2858 12.8538 11.2858H15.2146V11.9215ZM9.70028 12.8822C9.70028 12.8822 8.67885 13.0679 8.42886 11.9215V11.2858H10.7646C10.7646 11.2858 10.8717 12.7358 9.70028 12.8822ZM8.24314 9.50006C8.24314 9.50006 7.71456 9.52148 7.71456 9.04292V8.42863H6.64314V10.2143H4.85742V11.2858H6.64314V12.0001H4.85742V13.0715H6.70386C6.70386 13.0715 7.16456 15.2143 9.44314 15.2143C9.44314 15.2143 11.086 15.3572 11.811 13.8215C12.5324 15.3572 14.1752 15.2143 14.1752 15.2143C16.4574 15.2143 16.8074 13.0715 16.8074 13.0715H18.7074V12.0001H17.0002V11.2858H18.7074V10.2143H17.0002V8.42863H15.9288V9.04292C15.9288 9.52148 15.4002 9.50006 15.4002 9.50006H8.24314Z" fill="#F2F2F2"/>
</g>
</svg>

<svg xmlns="http://www.w3.org/2000/svg" width="24" height="24" fill="none" viewBox="0 0 24 24">
    <mask id="NAKA__a" width="20" height="20" x="2" y="2" maskUnits="userSpaceOnUse" style="mask-type:luminance">
        <path fill="#fff" d="M22 2H2v20h20z"/>
    </mask>
    <g mask="url(#NAKA__a)">
        <path fill="#C10606" d="M2 2h20v20H2z"/>
        <path fill="#7F0404" d="M15.685 12.65c-.25 1.143-1.332.957-1.332.957C13.182 13.464 13.29 12 13.29 12h2.393v.65zm-5.55.957s-1.1.25-1.35-.893V12H11.2s.107 1.464-1.065 1.607m-1.396-3.56s-.529.021-.529-.461v-.529H6.946v1.729H5.393V12h1.535v.564H5.393v1.222l1.725-.01s.482 2.153 2.76 2.153c.1 0 1.586 0 2.368-1.393.647 1.393 2.254 1.393 2.36 1.393 2.283 0 2.772-2.143 2.772-2.143h1.765v-1.222H17.56V12h1.583v-1.214h-1.6V9.057h-1.265v.529c0 .482-.528.46-.528.46z"/>
        <path fill="#CCC" d="M15.393 12.214c-.25 1.143-1.332.957-1.332.957-1.168-.142-.99-.992-.99-1.528h2.322zm-5.546.957s-1.1.186-1.35-.957v-.571h2.414s.107 1.382-1.064 1.528m-1.4-3.56s-.525.021-.525-.457v-.536H6.658v1.732h-1.6v1.293h1.585v.486H5.075v1.3H6.83s.479 2.142 2.76 2.142c0 0 1.644.143 2.365-1.392.725 1.535 2.368 1.392 2.368 1.392 2.279 0 2.757-2.142 2.757-2.142h1.754v-1.3h-1.475v-.486h1.496V10.35H17.25V8.621h-1.264v.533c0 .478-.528.457-.528.457z"/>
        <path fill="#F2F2F2" d="M15.215 11.922c-.25 1.146-1.297.96-1.297.96-1.171-.146-1.064-1.596-1.064-1.596h2.36zm-5.515.96s-1.021.186-1.271-.96v-.636h2.336s.107 1.45-1.065 1.596M8.243 9.5s-.528.021-.528-.457v-.614H6.643v1.785H4.857v1.072h1.786V12H4.857v1.072h1.847s.46 2.142 2.74 2.142c0 0 1.642.143 2.367-1.392.721 1.535 2.364 1.392 2.364 1.392 2.282 0 2.632-2.142 2.632-2.142h1.9V12H17v-.714h1.707v-1.072H17V8.43h-1.07v.614c0 .478-.529.457-.529.457z"/>
    </g>
</svg>
